chains/echos/logo.svg

<svg version="1.1" id="Layer_1" xmlns="http://www.w3.org/2000/svg" xmlns:xlink="http://www.w3.org/1999/xlink" x="0px" y="0px"
	 width="100%" viewBox="0 0 1000 1000" enable-background="new 0 0 1000 1000" xml:space="preserve">
<path fill="#000000" opacity="1.000000" stroke="none" 
	d="
M681.000000,1001.000000 
	C454.000000,1001.000000 227.500000,1001.000000 1.000000,1001.000000 
	C1.000000,667.666687 1.000000,334.333344 1.000000,1.000000 
	C334.333344,1.000000 667.666687,1.000000 1001.000000,1.000000 
	C1001.000000,334.333344 1001.000000,667.666687 1001.000000,1001.000000 
	C894.500000,1001.000000 788.000000,1001.000000 681.000000,1001.000000 
M575.123413,323.164215 
	C554.229492,316.330444 532.841125,311.761932 510.707733,309.615601 
	C510.707733,302.192596 510.904266,295.200012 510.628082,288.226105 
	C510.481537,284.525299 511.592560,282.311554 514.743103,280.085907 
	C534.975708,265.792725 542.332153,238.366730 532.240112,216.033310 
	C521.624878,192.541885 496.849792,179.808395 472.319427,185.709000 
	C450.719086,190.904800 436.846710,204.713013 432.271820,226.281219 
	C427.552063,248.532364 435.271912,266.856110 453.457550,280.662750 
	C454.725464,281.625336 456.766022,282.815948 456.803619,283.954773 
	C457.086975,292.532684 456.958160,301.124146 456.958160,308.926086 
	C443.334351,311.402039 430.436340,313.129120 417.845520,316.140594 
	C361.705627,329.568085 313.956604,357.271332 276.000977,401.094269 
	C254.717621,425.667694 239.201294,453.522797 229.498917,484.603302 
	C229.038345,486.078644 227.341064,487.923584 225.926804,488.225830 
	C214.745483,490.615509 210.004532,496.198578 210.001694,507.644104 
	C209.993195,541.972839 209.996857,576.301575 209.999512,610.630310 
	C210.000565,624.423401 216.231140,630.728210 230.162766,630.629395 
	C233.446701,630.606140 235.046844,631.441528 236.358414,634.687622 
	C247.582291,662.466064 263.565887,687.303162 284.394348,708.789856 
	C334.803375,760.791992 396.864380,787.595947 468.719421,791.706360 
	C519.772278,794.626709 568.442810,784.565247 613.901062,760.768433 
	C667.025024,732.958740 706.760071,692.322876 730.424255,636.803162 
	C732.456604,632.034973 734.638184,630.410034 739.768860,630.563049 
	C750.570862,630.885315 757.644592,623.711670 757.673523,612.883789 
	C757.752625,583.221741 757.670227,553.559204 758.393616,523.490967 
	C763.822327,522.690979 769.281067,522.054871 774.675293,521.066772 
	C884.382385,500.971741 945.692017,378.680176 895.243164,278.959167 
	C866.637634,222.415161 819.562073,190.571854 756.429382,185.082352 
	C700.478149,180.217316 653.347351,200.220139 615.704163,241.834930 
	C594.707520,265.046844 582.065552,292.599792 575.123413,323.164215 
z"/>
<path fill="#C075FE" opacity="1.000000" stroke="none" 
	d="
M757.651794,523.896912 
	C757.670227,553.559204 757.752625,583.221741 757.673523,612.883789 
	C757.644592,623.711670 750.570862,630.885315 739.768860,630.563049 
	C734.638184,630.410034 732.456604,632.034973 730.424255,636.803162 
	C706.760071,692.322876 667.025024,732.958740 613.901062,760.768433 
	C568.442810,784.565247 519.772278,794.626709 468.719421,791.706360 
	C396.864380,787.595947 334.803375,760.791992 284.394348,708.789856 
	C263.565887,687.303162 247.582291,662.466064 236.358414,634.687622 
	C235.046844,631.441528 233.446701,630.606140 230.162766,630.629395 
	C216.231140,630.728210 210.000565,624.423401 209.999512,610.630310 
	C209.996857,576.301575 209.993195,541.972839 210.001694,507.644104 
	C210.004532,496.198578 214.745483,490.615509 225.926804,488.225830 
	C227.341064,487.923584 229.038345,486.078644 229.498917,484.603302 
	C239.201294,453.522797 254.717621,425.667694 276.000977,401.094269 
	C313.956604,357.271332 361.705627,329.568085 417.845520,316.140594 
	C430.436340,313.129120 443.334351,311.402039 456.958160,308.926086 
	C456.958160,301.124146 457.086975,292.532684 456.803619,283.954773 
	C456.766022,282.815948 454.725464,281.625336 453.457550,280.662750 
	C435.271912,266.856110 427.552063,248.532364 432.271820,226.281219 
	C436.846710,204.713013 450.719086,190.904800 472.319427,185.709000 
	C496.849792,179.808395 521.624878,192.541885 532.240112,216.033310 
	C542.332153,238.366730 534.975708,265.792725 514.743103,280.085907 
	C511.592560,282.311554 510.481537,284.525299 510.628082,288.226105 
	C510.904266,295.200012 510.707733,302.192596 510.707733,309.615601 
	C532.841125,311.761932 554.229492,316.330444 575.545166,323.572266 
	C575.020081,331.533173 573.516174,339.064545 573.224426,346.642639 
	C572.065735,376.731171 578.334167,405.263641 592.068604,432.123108 
	C592.915344,433.778992 593.161621,435.741852 593.295532,437.540283 
	C572.211975,430.325989 550.859375,426.165466 529.112488,424.087311 
	C496.182495,420.940430 463.241730,421.012482 430.382751,425.045807 
	C402.831451,428.427612 376.090851,434.753204 351.308472,447.864288 
	C320.771454,464.019867 300.019684,488.025909 291.436432,521.913940 
	C286.748199,540.423767 287.241974,559.293640 288.178558,578.064636 
	C290.267303,619.927856 309.120392,651.517883 346.756531,671.254761 
	C374.685364,685.901001 404.895325,691.926086 435.846375,694.877930 
	C470.592896,698.191833 505.375732,698.039673 540.075439,693.982239 
	C568.149353,690.699585 595.479126,684.617249 620.761658,671.327576 
	C648.329407,656.836853 667.408997,635.349670 675.423462,604.806335 
	C680.124939,586.889099 680.372314,568.599304 680.049927,550.028870 
	C690.914673,542.763977 699.908386,534.077148 707.508301,523.883484 
	C708.396606,522.691895 710.437622,521.319397 711.639160,521.559204 
	C726.878723,524.600769 742.263123,524.190979 757.651794,523.896912 
z"/>
<path fill="#FEFEFE" opacity="1.000000" stroke="none" 
	d="
M593.687256,437.561890 
	C593.161621,435.741852 592.915344,433.778992 592.068604,432.123108 
	C578.334167,405.263641 572.065735,376.731171 573.224426,346.642639 
	C573.516174,339.064545 575.020081,331.533173 575.934448,323.588257 
	C582.065552,292.599792 594.707520,265.046844 615.704163,241.834930 
	C653.347351,200.220139 700.478149,180.217316 756.429382,185.082352 
	C819.562073,190.571854 866.637634,222.415161 895.243164,278.959167 
	C945.692017,378.680176 884.382385,500.971741 774.675293,521.066772 
	C769.281067,522.054871 763.822327,522.690979 758.022705,523.693970 
	C742.263123,524.190979 726.878723,524.600769 711.639160,521.559204 
	C710.437622,521.319397 708.396606,522.691895 707.508301,523.883484 
	C699.908386,534.077148 690.914673,542.763977 679.760254,550.170654 
	C669.623779,556.365723 659.528931,560.869934 648.505554,563.231873 
	C644.911865,564.001770 641.670532,563.305725 640.631958,559.986816 
	C639.956055,557.826721 640.710754,554.241516 642.222717,552.529907 
	C653.586060,539.666809 658.871155,524.406982 661.066467,507.738525 
	C661.545898,504.098206 660.457825,501.935699 657.185913,500.094421 
	C644.066345,492.711426 631.775757,483.972565 621.897644,472.630524 
	C612.322510,461.636383 603.933411,449.609253 594.901123,437.755737 
	C594.442749,437.497162 594.106567,437.518585 593.746887,437.535034 
	C593.723328,437.530029 593.687256,437.561890 593.687256,437.561890 
M674.525024,377.178925 
	C684.723511,373.286652 690.412781,365.782867 690.894348,355.004181 
	C691.357849,344.632202 686.610535,336.619720 677.211304,332.063721 
	C667.671387,327.439575 658.473328,328.694794 650.275330,335.502563 
	C641.872498,342.480408 639.418518,355.069824 644.332581,364.956879 
	C649.716064,375.788361 660.820862,380.503418 674.525024,377.178925 
M840.342957,341.268860 
	C833.799500,331.717224 824.350098,327.733490 813.735596,330.051636 
	C804.421631,332.085754 796.625488,340.409485 795.104919,349.942993 
	C793.479553,360.133667 798.212280,370.148254 807.104736,375.334351 
	C816.256653,380.671844 827.956116,379.438904 835.785095,372.311951 
	C844.533936,364.347687 846.323486,353.445312 840.342957,341.268860 
M725.830383,336.319580 
	C725.065613,337.192169 724.237244,338.017426 723.546021,338.944794 
	C717.552673,346.985657 716.504883,355.658234 720.822021,364.700317 
	C725.165771,373.798187 732.812012,378.467926 742.701355,378.592316 
	C752.649780,378.717499 760.233887,373.924561 764.833252,365.056885 
	C770.225098,354.660980 767.240967,341.988434 757.971497,334.568268 
	C748.983154,327.373108 736.511719,327.864990 725.830383,336.319580 
z"/>
<path fill="#010001" opacity="1.000000" stroke="none" 
	d="
M595.023438,438.035767 
	C603.933411,449.609253 612.322510,461.636383 621.897644,472.630524 
	C631.775757,483.972565 644.066345,492.711426 657.185913,500.094421 
	C660.457825,501.935699 661.545898,504.098206 661.066467,507.738525 
	C658.871155,524.406982 653.586060,539.666809 642.222717,552.529907 
	C640.710754,554.241516 639.956055,557.826721 640.631958,559.986816 
	C641.670532,563.305725 644.911865,564.001770 648.505554,563.231873 
	C659.528931,560.869934 669.623779,556.365723 679.479126,550.392090 
	C680.372314,568.599304 680.124939,586.889099 675.423462,604.806335 
	C667.408997,635.349670 648.329407,656.836853 620.761658,671.327576 
	C595.479126,684.617249 568.149353,690.699585 540.075439,693.982239 
	C505.375732,698.039673 470.592896,698.191833 435.846375,694.877930 
	C404.895325,691.926086 374.685364,685.901001 346.756531,671.254761 
	C309.120392,651.517883 290.267303,619.927856 288.178558,578.064636 
	C287.241974,559.293640 286.748199,540.423767 291.436432,521.913940 
	C300.019684,488.025909 320.771454,464.019867 351.308472,447.864288 
	C376.090851,434.753204 402.831451,428.427612 430.382751,425.045807 
	C463.241730,421.012482 496.182495,420.940430 529.112488,424.087311 
	C550.859375,426.165466 572.211975,430.325989 593.295532,437.540283 
	C593.687256,437.561890 593.723328,437.530029 593.887756,437.736450 
	C594.052185,437.942871 594.530640,438.064362 594.530640,438.064362 
	C594.530640,438.064362 595.023438,438.035767 595.023438,438.035767 
M355.847656,519.380310 
	C351.185730,534.408203 350.088043,549.756165 352.288635,565.272766 
	C354.468597,580.643738 359.150452,595.110291 369.931335,606.839844 
	C382.284119,620.279602 398.781219,620.537598 411.540131,607.545898 
	C413.968567,605.073181 416.214050,602.316223 418.046783,599.380066 
	C429.351471,581.269470 432.262177,561.270813 430.510956,540.430847 
	C429.226929,525.151184 425.194824,510.667114 415.944366,498.066101 
	C401.896149,478.929382 381.131714,478.436981 366.990265,497.509003 
	C362.331329,503.792297 359.637421,511.532654 355.847656,519.380310 
M615.176392,565.628296 
	C615.433899,557.331787 616.387207,548.985840 615.801758,540.749207 
	C614.641174,524.423645 610.231018,508.995148 599.621582,496.014893 
	C585.858276,479.175964 566.598267,479.281036 553.085938,496.375702 
	C540.045532,512.873291 536.443298,532.300476 536.778198,552.679443 
	C537.084778,571.336487 541.102600,589.042603 552.915771,604.061584 
	C566.775146,621.682068 586.785767,621.338989 600.445312,603.618469 
	C608.908386,592.639343 613.035522,579.991577 615.176392,565.628296 
z"/>
<path fill="#020202" opacity="1.000000" stroke="none" 
	d="
M674.152893,377.319763 
	C660.820862,380.503418 649.716064,375.788361 644.332581,364.956879 
	C639.418518,355.069824 641.872498,342.480408 650.275330,335.502563 
	C658.473328,328.694794 667.671387,327.439575 677.211304,332.063721 
	C686.610535,336.619720 691.357849,344.632202 690.894348,355.004181 
	C690.412781,365.782867 684.723511,373.286652 674.152893,377.319763 
z"/>
<path fill="#020202" opacity="1.000000" stroke="none" 
	d="
M840.561768,341.573090 
	C846.323486,353.445312 844.533936,364.347687 835.785095,372.311951 
	C827.956116,379.438904 816.256653,380.671844 807.104736,375.334351 
	C798.212280,370.148254 793.479553,360.133667 795.104919,349.942993 
	C796.625488,340.409485 804.421631,332.085754 813.735596,330.051636 
	C824.350098,327.733490 833.799500,331.717224 840.561768,341.573090 
z"/>
<path fill="#020202" opacity="1.000000" stroke="none" 
	d="
M726.086792,336.067627 
	C736.511719,327.864990 748.983154,327.373108 757.971497,334.568268 
	C767.240967,341.988434 770.225098,354.660980 764.833252,365.056885 
	C760.233887,373.924561 752.649780,378.717499 742.701355,378.592316 
	C732.812012,378.467926 725.165771,373.798187 720.822021,364.700317 
	C716.504883,355.658234 717.552673,346.985657 723.546021,338.944794 
	C724.237244,338.017426 725.065613,337.192169 726.086792,336.067627 
z"/>
<path fill="#C075FE" opacity="1.000000" stroke="none" 
	d="
M594.901123,437.755737 
	C595.023438,438.035767 594.530640,438.064362 594.530640,438.064362 
	C594.530640,438.064362 594.052185,437.942871 593.911316,437.741455 
	C594.106567,437.518585 594.442749,437.497162 594.901123,437.755737 
z"/>
<path fill="#C074FE" opacity="1.000000" stroke="none" 
	d="
M355.946320,518.993530 
	C359.637421,511.532654 362.331329,503.792297 366.990265,497.509003 
	C381.131714,478.436981 401.896149,478.929382 415.944366,498.066101 
	C425.194824,510.667114 429.226929,525.151184 430.510956,540.430847 
	C432.262177,561.270813 429.351471,581.269470 418.046783,599.380066 
	C416.214050,602.316223 413.968567,605.073181 411.540131,607.545898 
	C398.781219,620.537598 382.284119,620.279602 369.931335,606.839844 
	C359.150452,595.110291 354.468597,580.643738 352.288635,565.272766 
	C350.088043,549.756165 351.185730,534.408203 355.946320,518.993530 
z"/>
<path fill="#C074FE" opacity="1.000000" stroke="none" 
	d="
M615.142700,566.069336 
	C613.035522,579.991577 608.908386,592.639343 600.445312,603.618469 
	C586.785767,621.338989 566.775146,621.682068 552.915771,604.061584 
	C541.102600,589.042603 537.084778,571.336487 536.778198,552.679443 
	C536.443298,532.300476 540.045532,512.873291 553.085938,496.375702 
	C566.598267,479.281036 585.858276,479.175964 599.621582,496.014893 
	C610.231018,508.995148 614.641174,524.423645 615.801758,540.749207 
	C616.387207,548.985840 615.433899,557.331787 615.142700,566.069336 
z"/>
</svg>

<svg xmlns="http://www.w3.org/2000/svg" xml:space="preserve" viewBox="1 1 1000 1000"><path d="M681 1001H1V1h1000v1000H681M575.123 323.164c-20.894-6.834-42.282-11.402-64.415-13.548 0-7.423.196-14.416-.08-21.39-.146-3.7.965-5.914 4.115-8.14 20.233-14.293 27.59-41.72 17.497-64.053-10.615-23.491-35.39-36.225-59.92-30.324-21.6 5.196-35.473 19.004-40.048 40.572-4.72 22.251 3 40.575 21.186 54.382 1.267.962 3.308 2.153 3.346 3.292.283 8.578.154 17.17.154 24.971-13.624 2.476-26.522 4.203-39.112 7.215-56.14 13.427-103.89 41.13-141.845 84.953-21.283 24.574-36.8 52.429-46.502 83.51-.46 1.475-2.158 3.32-3.572 3.622-11.182 2.39-15.922 7.973-15.925 19.418-.009 34.329-.005 68.658-.002 102.986 0 13.793 6.231 20.098 20.163 20 3.284-.024 4.884.812 6.195 4.058 11.224 27.778 27.208 52.615 48.036 74.102 50.41 52.002 112.47 78.806 184.325 82.916 51.053 2.92 99.724-7.14 145.182-30.938 53.124-27.81 92.86-68.445 116.523-123.965 2.033-4.768 4.214-6.393 9.345-6.24 10.802.322 17.876-6.851 17.905-17.68.079-29.661-.004-59.324.72-89.392 5.428-.8 10.887-1.436 16.281-2.424 109.707-20.095 171.017-142.387 120.568-242.108-28.605-56.544-75.68-88.387-138.814-93.877-55.95-4.865-103.082 15.138-140.725 56.753-20.996 23.212-33.638 50.765-40.58 81.33z"/><path fill="#C075FE" d="M757.652 523.897c.018 29.662.1 59.325.022 88.987-.03 10.828-7.103 18.001-17.905 17.679-5.13-.153-7.312 1.472-9.345 6.24-23.664 55.52-63.399 96.156-116.523 123.965-45.458 23.797-94.129 33.859-145.182 30.938-71.855-4.11-133.916-30.914-184.325-82.916-20.828-21.487-36.812-46.324-48.036-74.102-1.311-3.246-2.911-4.082-6.195-4.059-13.932.1-20.162-6.206-20.163-19.999-.003-34.328-.007-68.657.002-102.986.003-11.445 4.743-17.028 15.925-19.418 1.414-.302 3.111-2.147 3.572-3.623 9.702-31.08 25.219-58.935 46.502-83.509 37.956-43.823 85.705-71.526 141.845-84.953 12.59-3.012 25.488-4.739 39.112-7.215 0-7.802.129-16.393-.154-24.971-.038-1.14-2.079-2.33-3.346-3.292-18.186-13.807-25.906-32.13-21.186-54.382 4.575-21.568 18.447-35.376 40.047-40.572 24.53-5.9 49.306 6.833 59.921 30.324 10.092 22.334 2.736 49.76-17.497 64.053-3.15 2.226-4.261 4.44-4.115 8.14.276 6.974.08 13.967.08 21.39 22.133 2.146 43.521 6.714 64.837 13.956-.525 7.961-2.029 15.493-2.32 23.07-1.16 30.09 5.11 58.622 18.844 85.481.846 1.656 1.093 3.619 1.227 5.417-21.084-7.214-42.437-11.375-64.184-13.453-32.93-3.147-65.87-3.075-98.73.959-27.55 3.382-54.291 9.707-79.074 22.818-30.537 16.156-51.288 40.162-59.872 74.05-4.688 18.51-4.194 37.38-3.257 56.15 2.088 41.864 20.941 73.454 58.578 93.19 27.928 14.647 58.138 20.672 89.09 23.624 34.746 3.314 69.529 3.162 104.228-.896 28.074-3.282 55.404-9.365 80.687-22.654 27.567-14.491 46.647-35.978 54.661-66.522 4.702-17.917 4.95-36.207 4.627-54.777 10.865-7.265 19.858-15.952 27.458-26.146.889-1.191 2.93-2.564 4.131-2.324 15.24 3.042 30.624 2.632 46.013 2.338z"/><path fill="#FEFEFE" d="M593.687 437.562c-.525-1.82-.772-3.783-1.618-5.439-13.735-26.86-20.003-55.392-18.845-85.48.292-7.578 1.796-15.11 2.71-23.055 6.132-30.988 18.774-58.541 39.77-81.753 37.643-41.615 84.774-61.618 140.725-56.753 63.133 5.49 110.209 37.333 138.814 93.877 50.449 99.721-10.86 222.013-120.568 242.108-5.394.988-10.853 1.624-16.652 2.627-15.76.497-31.144.907-46.384-2.135-1.201-.24-3.242 1.133-4.13 2.324-7.6 10.194-16.594 18.881-27.749 26.288-10.136 6.195-20.231 10.699-31.254 13.06-3.594.77-6.835.075-7.874-3.244-.676-2.16.079-5.745 1.59-7.457 11.364-12.863 16.65-28.123 18.844-44.791.48-3.64-.608-5.803-3.88-7.645-13.12-7.383-25.41-16.121-35.288-27.463-9.575-10.995-17.965-23.022-26.997-34.875-.458-.259-.794-.237-1.154-.221-.024-.005-.06.027-.06.027m80.838-60.383c10.199-3.892 15.888-11.396 16.37-22.175.463-10.372-4.284-18.384-13.684-22.94-9.54-4.624-18.738-3.37-26.936 3.439-8.403 6.977-10.856 19.567-5.942 29.454 5.383 10.831 16.488 15.546 30.192 12.222m165.818-35.91c-6.543-9.552-15.993-13.536-26.607-11.217-9.314 2.034-17.11 10.357-18.631 19.891-1.625 10.19 3.107 20.205 12 25.391 9.152 5.338 20.851 4.105 28.68-3.022 8.749-7.964 10.538-18.867 4.558-31.043m-114.513-4.95c-.764.873-1.593 1.698-2.284 2.626-5.993 8.04-7.041 16.713-2.724 25.755 4.344 9.098 11.99 13.768 21.88 13.892 9.948.125 17.532-4.667 22.131-13.535 5.392-10.396 2.408-23.069-6.862-30.489-8.988-7.195-21.46-6.703-32.14 1.752z"/><path fill="#010001" d="M595.023 438.036c8.91 11.573 17.3 23.6 26.875 34.595 9.878 11.342 22.168 20.08 35.288 27.463 3.272 1.842 4.36 4.004 3.88 7.645-2.195 16.668-7.48 31.928-18.843 44.79-1.512 1.713-2.267 5.298-1.591 7.458 1.039 3.319 4.28 4.015 7.874 3.245 11.023-2.362 21.118-6.866 30.973-12.84.893 18.207.646 36.497-4.056 54.414-8.014 30.544-27.094 52.03-54.661 66.522-25.283 13.29-52.613 19.372-80.687 22.654-34.7 4.058-69.482 4.21-104.229.896-30.95-2.952-61.16-8.977-89.09-23.623-37.636-19.737-56.489-51.327-58.577-93.19-.937-18.771-1.43-37.641 3.257-56.151 8.584-33.888 29.335-57.894 59.872-74.05 24.783-13.11 51.523-19.436 79.075-22.818 32.859-4.034 65.8-4.106 98.73-.959 21.746 2.078 43.099 6.239 64.183 13.453.391.022.427-.01.592.196.164.207.643.328.643.328l.492-.028M355.848 519.38c-4.662 15.028-5.76 30.376-3.56 45.893 2.18 15.37 6.862 29.837 17.643 41.567 12.353 13.44 28.85 13.698 41.61.706 2.428-2.473 4.673-5.23 6.506-8.166 11.304-18.11 14.215-38.11 12.464-58.95-1.284-15.279-5.316-29.763-14.567-42.364-14.048-19.137-34.812-19.629-48.954-.557-4.659 6.283-7.353 14.024-11.142 21.871m259.328 46.248c.258-8.296 1.211-16.642.626-24.879-1.16-16.325-5.571-31.754-16.18-44.734-13.764-16.839-33.024-16.734-46.536.36-13.04 16.498-16.643 35.925-16.308 56.304.307 18.657 4.325 36.364 16.138 51.383 13.86 17.62 33.87 17.277 47.53-.444 8.462-10.979 12.59-23.626 14.73-37.99z"/><path fill="#020202" d="M674.153 377.32c-13.332 3.183-24.437-1.532-29.82-12.363-4.914-9.887-2.46-22.477 5.942-29.454 8.198-6.808 17.396-8.063 26.936-3.44 9.4 4.557 14.147 12.57 13.683 22.941-.481 10.779-6.17 18.283-16.741 22.316zM840.562 341.573c5.761 11.872 3.972 22.775-4.777 30.739-7.829 7.127-19.528 8.36-28.68 3.022-8.893-5.186-13.625-15.2-12-25.391 1.52-9.534 9.317-17.857 18.63-19.891 10.615-2.319 20.064 1.665 26.827 11.521zM726.087 336.068c10.425-8.203 22.896-8.695 31.884-1.5 9.27 7.42 12.254 20.093 6.862 30.489-4.6 8.868-12.183 13.66-22.132 13.535-9.889-.124-17.535-4.794-21.879-13.892-4.317-9.042-3.27-17.714 2.724-25.755.691-.928 1.52-1.753 2.54-2.877z"/><path fill="#C075FE" d="M594.901 437.756c.122.28-.37.308-.37.308s-.479-.121-.62-.323c.196-.222.532-.244.99.015z"/><path fill="#C074FE" d="M355.946 518.994c3.691-7.461 6.385-15.202 11.044-21.485 14.142-19.072 34.906-18.58 48.954.557 9.25 12.601 13.283 27.085 14.567 42.365 1.751 20.84-1.16 40.838-12.464 58.95-1.833 2.935-4.078 5.692-6.507 8.165-12.759 12.992-29.256 12.734-41.609-.706-10.78-11.73-15.462-26.196-17.642-41.567-2.201-15.517-1.103-30.865 3.657-46.28zM615.143 566.07c-2.107 13.922-6.235 26.57-14.698 37.548-13.66 17.721-33.67 18.064-47.53.444-11.812-15.02-15.83-32.726-16.137-51.383-.335-20.379 3.268-39.806 16.308-56.303 13.512-17.095 32.772-17.2 46.536-.361 10.609 12.98 15.02 28.409 16.18 44.734.585 8.237-.368 16.583-.66 25.32z"/></svg>
